svgs/materials/action/timeline.svg

<svg xmlns="http://www.w3.org/2000/svg" enable-background="new 0 0 24 24" height="24" viewBox="0 0 24 24" width="24"><g><rect fill="none" height="24" width="24"/></g><g><g><g><path d="M23,8c0,1.1-0.9,2-2,2c-0.18,0-0.35-0.02-0.51-0.07l-3.56,3.55C16.98,13.64,17,13.82,17,14c0,1.1-0.9,2-2,2s-2-0.9-2-2 c0-0.18,0.02-0.36,0.07-0.52l-2.55-2.55C10.36,10.98,10.18,11,10,11s-0.36-0.02-0.52-0.07l-4.55,4.56C4.98,15.65,5,15.82,5,16 c0,1.1-0.9,2-2,2s-2-0.9-2-2s0.9-2,2-2c0.18,0,0.35,0.02,0.51,0.07l4.56-4.55C8.02,9.36,8,9.18,8,9c0-1.1,0.9-2,2-2s2,0.9,2,2 c0,0.18-0.02,0.36-0.07,0.52l2.55,2.55C14.64,12.02,14.82,12,15,12s0.36,0.02,0.52,0.07l3.55-3.56C19.02,8.35,19,8.18,19,8 c0-1.1,0.9-2,2-2S23,6.9,23,8z"/></g></g></g></svg>

<?xml version="1.0" encoding="UTF-8" standalone="no"?>
<svg
   enable-background="new 0 0 24 24"
   height="24"
   viewBox="0 0 24 24"
   width="24"
   version="1.1"
   id="svg14"
   sodipodi:docname="timeline.svg"
   inkscape:version="1.2 (dc2aeda, 2022-05-15)"
   xmlns:inkscape="http://www.inkscape.org/namespaces/inkscape"
   xmlns:sodipodi="http://sodipodi.sourceforge.net/DTD/sodipodi-0.dtd"
   xmlns="http://www.w3.org/2000/svg"
   xmlns:svg="http://www.w3.org/2000/svg">
  <defs
     id="defs18" />
  <sodipodi:namedview
     id="namedview16"
     pagecolor="#ffffff"
     bordercolor="#000000"
     borderopacity="0.25"
     inkscape:showpageshadow="2"
     inkscape:pageopacity="0.0"
     inkscape:pagecheckerboard="0"
     inkscape:deskcolor="#d1d1d1"
     showgrid="false"
     inkscape:zoom="9.8333333"
     inkscape:cx="8.2372881"
     inkscape:cy="12"
     inkscape:window-width="1309"
     inkscape:window-height="456"
     inkscape:window-x="0"
     inkscape:window-y="25"
     inkscape:window-maximized="0"
     inkscape:current-layer="svg14" />
  <path
     id="rect2"
     style="fill:none"
     d="M 0,0 H 24 V 24 H 0 Z" />
  <path
     d="m 23,8 c 0,1.1 -0.9,2 -2,2 -0.18,0 -0.35,-0.02 -0.51,-0.07 l -3.56,3.55 C 16.98,13.64 17,13.82 17,14 c 0,1.1 -0.9,2 -2,2 -1.1,0 -2,-0.9 -2,-2 0,-0.18 0.02,-0.36 0.07,-0.52 L 10.52,10.93 C 10.36,10.98 10.18,11 10,11 9.82,11 9.64,10.98 9.48,10.93 L 4.93,15.49 C 4.98,15.65 5,15.82 5,16 5,17.1 4.1,18 3,18 1.9,18 1,17.1 1,16 c 0,-1.1 0.9,-2 2,-2 0.18,0 0.35,0.02 0.51,0.07 L 8.07,9.52 C 8.02,9.36 8,9.18 8,9 8,7.9 8.9,7 10,7 c 1.1,0 2,0.9 2,2 0,0.18 -0.02,0.36 -0.07,0.52 l 2.55,2.55 C 14.64,12.02 14.82,12 15,12 c 0.18,0 0.36,0.02 0.52,0.07 L 19.07,8.51 C 19.02,8.35 19,8.18 19,8 c 0,-1.1 0.9,-2 2,-2 1.1,0 2,0.9 2,2 z"
     id="path6" />
</svg>
